src/main/resources/icons/AllIcons/nodes/newParameter.svg

<!-- Copyright 2000-2021 JetBrains s.r.o. Use of this source code is governed by the Apache 2.0 license that can be found in the LICENSE file. -->
<svg xmlns="http://www.w3.org/2000/svg" width="16" height="16" viewBox="0 0 16 16">
  <g fill="none" fill-rule="evenodd">
    <path fill="#F4AF3D" fill-opacity=".6" d="M6.23172725,14.7747409 L5.97021136,13.6931794 L8.296073,11.5481386 L8.296073,10.7849973 L5.04551886,10.5801685 L3.94561873,7.4 L3.15812862,7.4 L2.05315109,10.5801685 L1.5042158,10.6135833 C1.17900109,9.80605599 1,8.9239324 1,8 C1,4.134 4.134,1 8,1 C11.866,1 15,4.134 15,8 C15,11.866 11.866,15 8,15 C7.38914174,15 6.79655894,14.9217551 6.23172725,14.7747409 Z"/>
    <path fill="#231F20" fill-opacity=".7" d="M6.9974,7.8021 C6.9974,8.83569336 7.23855513,9.8771 8.5354,9.8771 C9.83224487,9.8771 10,8.4641 10,7.7921 C10,7.1061 9.90228271,5.7461 8.5244,5.7461 C7.14651729,5.7461 6.9974,6.76850664 6.9974,7.8021 Z M7.00540848,10.703668 L6.0004,10.6403389 L6.0004,5.0001 L6.9974,5.0001 L6.9974,5.7461 C7.36693099,5.24876667 7.93993099,5.0001 8.7164,5.0001 C9.88110352,5.0001 11.0004,5.57818604 11.0004,7.8021 C11.0004,10.026014 9.65454102,10.6231 8.7164,10.6231 C8.09097266,10.6231 7.51883932,10.4154 7,10 C7.00371933,10.0344038 7.00552216,10.2689598 7.00540848,10.703668 Z M6.99866466,12.7446818 C6.9982612,12.8278986 6.99783964,12.9130047 6.9974,13 L6.72182383,13 L6.99866466,12.7446818 Z"/>
    <polygon fill="#9AA7B0" points="3.5 14.263 1.337 15.657 1.995 13.169 0 11.543 2.57 11.4 3.5 9 4.43 11.4 7 11.543 5.005 13.169 5.663 15.657"/>
  </g>
</svg>

<svg xmlns="http://www.w3.org/2000/svg" width="16" height="16" viewBox="0 0 16 16"><rect id="frame" width="16" height="16" fill="none"/><g fill="none" fill-rule="evenodd"><path fill="#F4AF3D" fill-opacity=".6" d="M6.232 14.775l-.262-1.082 2.326-2.145v-.763l-3.25-.205-1.1-3.18h-.788l-1.105 3.18-.549.034a7 7 0 1 1 4.728 4.161z"/><path fill="#231F20" fill-opacity=".7" d="M6.997 7.802c0 1.034.242 2.075 1.538 2.075C9.832 9.877 10 8.464 10 7.792c0-.686-.098-2.046-1.476-2.046-1.377 0-1.527 1.023-1.527 2.056zm.008 2.902L6 10.64V5h.997v.746C7.367 5.25 7.94 5 8.717 5 9.88 5 11 5.578 11 7.802s-1.345 2.821-2.284 2.821c-.625 0-1.197-.208-1.716-.623.004.034.006.269.005.704zM7 12.744L6.997 13h-.275l.277-.255z"/><path fill="#9AA7B0" d="M3.5 14.263l-2.163 1.394.658-2.488L0 11.543l2.57-.143L3.5 9l.93 2.4 2.57.143-1.995 1.626.658 2.488z"/></g></svg>
